//sound1
~sound1var1 = Buffer.read(s, "/Users/jsk/Desktop/schroedingers_box/sounds/sound1_vars/atakes_vasi_ixeion_me_kleidi_var01.wav");
~sound1var2 = Buffer.read(s, "/Users/jsk/Desktop/schroedingers_box/sounds/sound1_vars/atakes_vasi_ixeion_me_kleidi_var02.wav");
~sound1var3 = Buffer.read(s, "/Users/jsk/Desktop/schroedingers_box/sounds/sound1_vars/atakes_vasi_ixeion_me_kleidi_var03.wav");
~sound1var4 = Buffer.read(s, "/Users/jsk/Desktop/schroedingers_box/sounds/sound1_vars/atakes_vasi_ixeion_me_kleidi_var04.wav");
~sound1var5 = Buffer.read(s, "/Users/jsk/Desktop/schroedingers_box/sounds/sound1_vars/atakes_vasi_ixeion_me_kleidi_var05.wav");

//sound2
~sound2var1 = Buffer.read(s, "/Users/jsk/Desktop/schroedingers_box/sounds/sound2_vars/kagelo01.wav");
~sound2var2 = Buffer.read(s, "/Users/jsk/Desktop/schroedingers_box/sounds/sound2_vars/kagelo02.wav");

//sound3
~sound3var1 = Buffer.read(s, "/Users/jsk/Desktop/schroedingers_box/sounds/sound3_vars/metaliko_kouti_diafores _attakes_var1.wav");
~sound3var2 = Buffer.read(s, "/Users/jsk/Desktop/schroedingers_box/sounds/sound3_vars/metaliko_kouti_diafores _attakes_var2.wav");
~sound3var3 = Buffer.read(s, "/Users/jsk/Desktop/schroedingers_box/sounds/sound3_vars/metaliko_kouti_diafores _attakes_var3.wav");


//play{PlayBuf.ar(2, bufnum: ~sound3var3)}

	