//sound1
~sound1var1 = Buffer.read(s, "/Users/jsk/Desktop/sounds_processed/ionio/sound1_vars/atakes_vasi_ixeion_me_kleidi_var01.wav");
~sound1var2 = Buffer.read(s, "/Users/jsk/Desktop/sounds_processed/ionio/sound1_vars/atakes_vasi_ixeion_me_kleidi_var02.wav");
~sound1var3 = Buffer.read(s, "/Users/jsk/Desktop/sounds_processed/ionio/sound1_vars/atakes_vasi_ixeion_me_kleidi_var03.wav");
~sound1var4 = Buffer.read(s, "/Users/jsk/Desktop/sounds_processed/ionio/sound1_vars/atakes_vasi_ixeion_me_kleidi_var04.wav");
~sound1var5 = Buffer.read(s, "/Users/jsk/Desktop/sounds_processed/ionio/sound1_vars/atakes_vasi_ixeion_me_kleidi_var05.wav");

//sound2
~sound2var1 = Buffer.read(s, "/Users/jsk/Desktop/sounds_processed/ionio/sound3_vars/metaliko_kouti_diafores _attakes_var3.wav");
~sound2var2 = Buffer.read(s, "/Users/jsk/Desktop/sounds_processed/ionio/sound3_vars/metaliko_kouti_diafores _attakes_var2.wav");
~sound2var3 = Buffer.read(s, "/Users/jsk/Desktop/sounds_processed/ionio/sound3_vars/metaliko_kouti_diafores _attakes_var3.wav");