~sound5var1 = Buffer.readChannel(s, "./sounds/35dogtoy_var1.wav", channels:1);
~sound5var2 = Buffer.readChannel(s, "./sounds/35dogtoy_var2.wav", channels:1);

~sound = [~sound5var1, ~sound5var2];

~addsound = false;
~outcome = false;