~sound1var1 = Buffer.readChannel(s, "./sounds/atakes_vasi_ixeion_me_kleidi_var01.wav", channels:1);
~sound1var2 = Buffer.readChannel(s, "./sounds/atakes_vasi_ixeion_me_kleidi_var02.wav", channels:1);
~sound1var3 = Buffer.readChannel(s, "./sounds/atakes_vasi_ixeion_me_kleidi_var03.wav", channels:1);
~sound1var4 = Buffer.readChannel(s, "./sounds/atakes_vasi_ixeion_me_kleidi_var04.wav", channels:1);
~sound1var5 = Buffer.readChannel(s, "./sounds/atakes_vasi_ixeion_me_kleidi_var05.wav", channels:1);

~sound = [~sound1var1, ~sound1var2, ~sound1var3, ~sound1var4, ~sound1var5];

~addsound = false;
~outcome = false;
