
~sound3var1 = Buffer.readChannel(s, "./sounds/metaliko_kouti_diafores _attakes_var1.wav", channels:1);
~sound3var2 = Buffer.readChannel(s, "./sounds/metaliko_kouti_diafores _attakes_var2.wav", channels:1);
~sound3var3 = Buffer.readChannel(s, "./sounds/metaliko_kouti_diafores _attakes_var3.wav", channels:1);

~sound = [~sound3var1, ~sound3var2, ~sound3var3];

~addsound = false;
~outcome = false;
