~sound9var1 = Buffer.read(s, "./sounds/firework_var01.wav");
~sound9var2 = Buffer.read(s, "./sounds/firework_var02.wav");
~sound9var3 = Buffer.read(s, "./sounds/firework_var03.wav");
~sound9var4 = Buffer.read(s, "./sounds/firework_var04.wav");
~sound9var5 = Buffer.read(s, "./sounds/firework_var05.wav");

~sound = [~sound9var1, ~sound9var2, ~sound9var3, ~sound9var4, ~sound9var5];

~addsound = false;

