~sound2var1 = Buffer.readChannel(s, "./sounds/kagelo01.wav", channels:1);
~sound2var2 = Buffer.readChannel(s, "./sounds/kagelo02.wav", channels:1);

~sound = [~sound2var1, ~sound2var2];

~addsound = false;
~outcome = false;
